X: 1
T: Foxglove, The
M: 4/4
L: 1/8
R: hornpipe
K: Gmaj
|:D2|GFGA GABc|d^cdf gdBG|FGAB cedc|BGAF GFED|
GFGA GABc|d^cdf gdBG|FGAB cedc|BGAF G2:|
|:(3def|gdBG ecAG|FGAB cAFD|GFGA Bd^cd|Ad^ce d2 (3def|
gdBG ecAG|FGAB cAFD|GFGA Bedc|BGAF G2:|
